component-icons/svg/panelbar.svg

<?xml version="1.0" encoding="utf-8"?>
<!-- Generator: Adobe Illustrator 14.0.0, SVG Export Plug-In . SVG Version: 6.00 Build 43363)  -->
<!DOCTYPE svg PUBLIC "-//W3C//DTD SVG 1.1//EN" "http://www.w3.org/Graphics/SVG/1.1/DTD/svg11.dtd">
<svg version="1.1" id="Layer_1" xmlns="http://www.w3.org/2000/svg" xmlns:xlink="http://www.w3.org/1999/xlink" x="0px" y="0px"
	 width="24px" height="24px" viewBox="0 0 24 24" enable-background="new 0 0 24 24" xml:space="preserve">
<path fill="#818181" d="M23,0H1v2h20L23,0z M19,8H5v2h12L19,8z M5,14h8l2-2H5V14z M1,20h20l2-2H1V20z M1,24h20l2-2H1V24z M1,4v2v10
	h2V6h18l2-2H3H1z"/>
</svg>

<svg id="Layer_1" data-name="Layer 1" xmlns="http://www.w3.org/2000/svg" viewBox="0 0 24 24">
  <defs>
    <style>
      .cls-1 {
        fill: gray;
      }
    </style>
  </defs>
  <title>panelbar</title>
  <path class="cls-1" d="M1,24H21l2-2H1Zm0-4H21l2-2H1ZM23,0H1V2H21ZM5,14h8l2-2H5ZM19,8H5v2H17ZM1,16H3V6H21l2-2H1Z"/>
</svg>
